package/converter/svg/solid/square-fragile.svg

<svg xmlns="http://www.w3.org/2000/svg" viewBox="0 0 448 512"><!-- Font Awesome Pro 6.0.0-alpha2 by @fontawesome - https://fontawesome.com License - https://fontawesome.com/license (Commercial License) --><path d="M384 32H64C28.654 32 0 60.652 0 96V416C0 451.346 28.654 480 64 480H384C419.346 480 448 451.346 448 416V96C448 60.652 419.346 32 384 32ZM320 208C320 255.539 285.363 294.734 240 302.387V384H288C296.836 384 304 391.162 304 400C304 408.836 296.836 416 288 416H160C151.164 416 144 408.836 144 400C144 391.162 151.164 384 160 384H208V302.387C162.637 294.734 128 255.539 128 208V112C128 103.162 135.164 96 144 96H176L208 160L176 192L256 256L224 192L272 160L240 96H304C312.836 96 320 103.162 320 112V208Z"/></svg>

<svg xmlns="http://www.w3.org/2000/svg" viewBox="0 0 448 512"><!--! Font Awesome Pro 6.6.0 by @fontawesome - https://fontawesome.com License - https://fontawesome.com/license (Commercial License) Copyright 2024 Fonticons, Inc. --><path d="M64 32C28.7 32 0 60.7 0 96L0 416c0 35.3 28.7 64 64 64l320 0c35.3 0 64-28.7 64-64l0-320c0-35.3-28.7-64-64-64L64 32zm64 86.3C128 106 138 96 150.3 96L176 96l32 64-32 32 80 64-32-64 48-32L240 96l57.7 0C310 96 320 106 320 118.3l0 89.7c0 47.6-34.6 87.1-80 94.7l0 81.3 48 0c8.8 0 16 7.2 16 16s-7.2 16-16 16l-128 0c-8.8 0-16-7.2-16-16s7.2-16 16-16l48 0 0-81.3c-45.4-7.6-80-47.1-80-94.7l0-89.7z"/></svg>
